app/img/amadeo_web/ic_size.svg

<svg width="49" height="46" viewBox="0 0 49 46" fill="none" xmlns="http://www.w3.org/2000/svg">
    <rect width="49" height="46" rx="10" fill="url(#paint0_linear)"/>
    <rect x="0.5" y="0.5" width="48" height="45" rx="9.5" stroke="#FAFAFA" stroke-opacity="0.1"/>
    <path d="M39.6872 22.7996L32.6693 16.2906C32.5701 16.1985 32.4524 16.1254 32.3228 16.0756C32.1932 16.0257 32.0543 16 31.914 16C31.7737 16 31.6348 16.0256 31.5052 16.0753C31.3756 16.1251 31.2578 16.1981 31.1586 16.2901C31.0594 16.3821 30.9807 16.4914 30.927 16.6116C30.8734 16.7318 30.8458 16.8607 30.8458 16.9908C30.8459 17.1209 30.8736 17.2498 30.9273 17.37C30.9811 17.4902 31.0598 17.5993 31.1591 17.6913L36.3537 22.5094H28.2144C28.3607 22.8652 28.435 23.243 28.4333 23.6238C28.4345 23.9169 28.3914 24.2086 28.3051 24.4906H36.3537L31.1591 29.3087C31.0598 29.4007 30.9811 29.5098 30.9273 29.63C30.8736 29.7502 30.8459 29.8791 30.8458 30.0092C30.8458 30.1393 30.8734 30.2682 30.927 30.3884C30.9807 30.5086 31.0594 30.6179 31.1586 30.7099C31.2578 30.8019 31.3756 30.8749 31.5052 30.9247C31.6348 30.9744 31.7737 31 31.914 31C32.0543 31 32.1932 30.9743 32.3228 30.9244C32.4524 30.8746 32.5701 30.8015 32.6693 30.7094L39.6872 24.2004C39.7864 24.1084 39.8651 23.9992 39.9188 23.8791C39.9724 23.7589 40.0001 23.6301 40.0001 23.5C40.0001 23.3699 39.9724 23.2411 39.9188 23.1209C39.8651 23.0008 39.7864 22.8916 39.6872 22.7996Z"
          fill="white" stroke="white" stroke-width="0.4"/>
    <path d="M13.6526 22.5094L18.8559 17.6909C18.9553 17.599 19.034 17.4898 19.0878 17.3696C19.1416 17.2494 19.1692 17.1206 19.1692 16.9905C19.1692 16.8604 19.1416 16.7316 19.0878 16.6115C19.034 16.4913 18.9553 16.3821 18.8559 16.2901C18.7566 16.1981 18.6387 16.1252 18.5089 16.0754C18.3791 16.0256 18.24 16 18.0995 16C17.9591 16 17.82 16.0256 17.6902 16.0754C17.5604 16.1252 17.4425 16.1981 17.3432 16.2901L10.3134 22.7996C10.2141 22.8916 10.1352 23.0007 10.0815 23.1209C10.0277 23.2411 10 23.3699 10 23.5C10 23.6301 10.0277 23.7589 10.0815 23.8791C10.1352 23.9993 10.2141 24.1084 10.3134 24.2004L17.3432 30.7099C17.4425 30.8019 17.5604 30.8748 17.6902 30.9246C17.82 30.9744 17.9591 31 18.0995 31C18.24 31 18.3791 30.9744 18.5089 30.9246C18.6387 30.8748 18.7566 30.8019 18.8559 30.7099C18.9553 30.6179 19.034 30.5087 19.0878 30.3885C19.1416 30.2684 19.1692 30.1396 19.1692 30.0095C19.1692 29.8794 19.1416 29.7506 19.0878 29.6304C19.034 29.5102 18.9553 29.401 18.8559 29.3091L13.6526 24.4906H21.6948C21.6084 24.2087 21.5652 23.9169 21.5664 23.6238C21.5647 23.243 21.6391 22.8652 21.7857 22.5094H13.6526Z"
          fill="#022AF0" stroke="#022AF0" stroke-width="0.4"/>
    <path d="M25.9343 21.5715C25.6432 21.4302 25.3237 21.3569 25 21.3572C24.6792 21.3569 24.3625 21.4302 24.0744 21.5715C23.7674 21.7185 23.4999 21.9365 23.294 22.2074C23.0881 22.4784 22.9496 22.7945 22.8902 23.1296C22.8307 23.4646 22.8519 23.8091 22.952 24.1343C23.0521 24.4596 23.2282 24.7564 23.4658 25C23.6661 25.2036 23.9049 25.3653 24.1683 25.4757C24.4317 25.5861 24.7145 25.6429 25.0001 25.6429C25.2857 25.6429 25.5684 25.5861 25.8318 25.4757C26.0952 25.3653 26.3341 25.2036 26.5344 25C26.7714 24.7566 26.9472 24.4603 27.0474 24.1356C27.1476 23.8109 27.1693 23.4671 27.1108 23.1324C27.0522 22.7977 26.915 22.4816 26.7105 22.2103C26.506 21.9389 26.24 21.72 25.9343 21.5715Z"
          fill="#022AF0"/>
    <defs>
        <linearGradient id="paint0_linear" x1="1.23357e-07" y1="-7.56962" x2="43.9368" y2="40.067"
                        gradientUnits="userSpaceOnUse">
            <stop stop-color="#5DD4E8"/>
            <stop offset="1" stop-color="#76F3B5"/>
        </linearGradient>
    </defs>
</svg>

<svg width="49" height="46" fill="none" xmlns="http://www.w3.org/2000/svg"><rect width="49" height="46" rx="10" fill="url(#a)"/><rect x=".5" y=".5" width="48" height="45" rx="9.5" stroke="#FAFAFA" stroke-opacity=".1"/><path d="m39.687 22.8-7.018-6.51a1.076 1.076 0 0 0-.346-.214 1.139 1.139 0 0 0-1.164.214.99.99 0 0 0-.232.322.93.93 0 0 0 0 .758.99.99 0 0 0 .232.321l5.195 4.818h-8.14c.147.356.221.734.22 1.115 0 .293-.043.585-.129.867h8.049l-5.195 4.818a.99.99 0 0 0-.232.321.93.93 0 0 0 .232 1.08c.099.092.217.165.346.215a1.143 1.143 0 0 0 .818 0c.13-.05.247-.123.346-.216l7.018-6.509a.99.99 0 0 0 .232-.32.93.93 0 0 0 0-.76.99.99 0 0 0-.232-.32Z" fill="#fff" stroke="#fff" stroke-width=".4"/><path d="m13.653 22.51 5.203-4.82a.988.988 0 0 0 .232-.32.927.927 0 0 0 0-.759.989.989 0 0 0-.232-.32 1.078 1.078 0 0 0-.347-.216 1.144 1.144 0 0 0-.819 0c-.13.05-.248.123-.347.215l-7.03 6.51a.989.989 0 0 0-.232.32.927.927 0 0 0 0 .76c.054.12.133.228.232.32l7.03 6.51c.1.092.217.165.347.215a1.144 1.144 0 0 0 .819 0c.13-.05.248-.123.347-.215a.989.989 0 0 0 .232-.322.926.926 0 0 0 0-.758.988.988 0 0 0-.232-.32l-5.203-4.82h8.042a2.915 2.915 0 0 1-.129-.866c-.001-.381.073-.759.22-1.115h-8.133Z" fill="#022AF0" stroke="#022AF0" stroke-width=".4"/><path d="M25.934 21.572a2.135 2.135 0 0 0-2.64.635A2.143 2.143 0 0 0 23.466 25a2.153 2.153 0 0 0 3.068 0 2.146 2.146 0 0 0-.6-3.428Z" fill="#022AF0"/><defs><linearGradient id="a" x1="0" y1="-7.57" x2="43.937" y2="40.067" gradientUnits="userSpaceOnUse"><stop stop-color="#5DD4E8"/><stop offset="1" stop-color="#76F3B5"/></linearGradient></defs></svg>
